!!!OTL: DA DROBEN AUF JENEM BERGE
!!!ARE: Europa, Mitteleuropa, Deutschland, Brandenburg
!!!SCT: E0419C
!!!YEM: Copyright 1995, estate of Helmut Schaffrath.
**kern
*ICvox
*Ivox
*M6/8
*k[f#]
*G:
{8d
=1
8.g
16b
8dd
8.dd
16cc#
8dd
=2
4.b
4a}
{8d
=3
8.g
16a
8b
8.b
16a
8g
=4
2a
8r}
{8dd
=5
8.b
16cc
8dd
8.b
16cc
8dd
=6
4ee
16gg
16ee
4dd}
{8cc
=7
8.b
16cc
8b
8a
8g
8a
=8
2g
8r}
==
!!!AGN: Liebes - Lied, Abschied
!!!ONB: ESAC (Essen Associative Code) Database: ERK1
!!!AMT: compound duple
!!!AIN: vox
!!!EED: Helmut Schaffrath
!!!EEV: 1.0
*-
